X: 1
T: Esmeralda Waltz   (G)
T: Castle Innovation Waltz
C: C. de Mesquita 1914
%O: arr. John Chambers
%date: 1914
R: waltz
Z: 2018 John Chambers <jc:trillian.mit.edu>
M: 3/4
L: 1/8
K: G
%%continueall 0
% - - - - - - - - - -
"I1"[|\
"G"[g6d6B6G6] | "D7"[d6A6] | "G"[B6G6] | "D7"[A6F6] |\
"G"z2 dD E2- | "D7"E2 [d4c4F4] | "G"z2 dD E2- | "D7"E2 [d4c4F4] [|]\
"A1"|:\
"G"B4 B2- | "D7"B2 A2 c2 | "G"B4 d2- | "D7"d2 A2 c2 |\
"G"B4 B2- | "D7"B2 A2 B2 |
[1 "G"G4 D2- | "D7"D2 {F}E2 D2 :|[2 "G"G6- | G4 z2 [|]\
"B1"|:\
"D7"A2 B2 c2 | A2 B2 c2 | "G"B2 c2 d2 | B2 c2 d2 | "D7"c2 d2 e2 |\
[1 d2 e2 f2 | "G"dcBc d2- | d4 z2 :|
[2 [f2d2] [a2d2] (3(aba) | "G"[g6B6] | "D7"[d6c6F6] [|]\
"I2"[|\
"G"[B6G6] | "D7"[A6F6] | "G"z2 dB e2 | "D7"z2 [d4c4F4] |\
"G/B"z2 dGe2 | "D7/A"z2 [d4c4F4] | "G"z2 [dB]D E2 | "D7"z2 [d4c4F4] |]
"A2"|:\
"G"B4 B2- | "D7"B2 A2 c2 | "G"B4 d2- | "D7"d2 A2 c2 |\
"G"B4 B2- | "D7"B2 A2 B2 |[1 "G"G4 D2 | "D7"D6 :|[2 "G"G6- | G4 z2 [|]\
"B2"[|\
"D7"A2 B2 c2 | A2 B2 c2 | "G"B2 c2 d2 | B2 c2 d2 |
"D7"c2 d2 e2 | f2 a2 (3(aba) | "G"g6 | "D7"d6 [|]\
"I3"[|\
"G"B6 | "D7"A6 | "G"G6 | "D7"D6 |\
"G"B,6 | "D7"A,6 | "G"z2 [dB]D E2 | "D7"z2 [d4A4] [|]\
"A3"[|\
"G"B4 B2- | "D7"B2 A2 c2 | "G"B4 d2- | "D7"d2 A2 c2 |
"G"B4 B2- | "D7"B2 A2 B2 | "G"G6 | "D7"[D6C6A,6] [|]\
"I4"[|\
"G"z2 [dB]D E2- | "D7"E2 [d4c4F4] | "G"z2 [dB]D E2- | "D7"E2 [d4c4F4] |\
"G"B4 B2- | "D7"B2 A2 c2 | "G"B4 B2- | "D7"B2 A2 d2 |\
"G"[g6-B6-] | [g2B2] z4 |]
